X: 1
T: Glencoe Hall
C: Dan R. MacDonald
R: jig
Z: 2012 John Chambers <jc:trillian.mit.edu>
M: 6/8
L: 1/8
K: D
A, |\
"D"DED F2G | "D"A2-A A2B | "D"Adf "(Bm)"afd | "Em"e2-e "A7"e2f |\
"G"gfg bag | "D"fef afd | "Em"gfg "A7"cac | "D"d3 d2 :|
f |\
"D"afd Adf | "(A7)"abg "D"afd | "D"afd "Bm"Adf | "Em"ecA "A7"GFE |\
"D"afd Adf | "(A7)"abg "D"afd | "Em"gfg "A7"cac | "D"d3 d2 |]
f |\
"D"afd Adf | "(A7)"abg "D"afd | "D"afd "Bm"Adf | "Em"ecA "A7"GFE |\
"D"DFA "G"DGB | "D"FAd "(Bm)"afd | "Em"gfg "A7"cac | "D"d3 d2 |]
